icons/archive-fill.svg

<svg viewBox="0 0 24 24" fill="currentColor" xmlns="http://www.w3.org/2000/svg"><path d="M3 10H21V20.0044C21 20.5543 20.5551 21 20.0066 21H3.9934C3.44476 21 3 20.5552 3 20.0044V10ZM9 12V14H15V12H9ZM2 3.99981C2 3.44763 2.45531 3 2.9918 3H21.0082C21.556 3 22 3.44372 22 3.99981V8H2V3.99981Z"/></svg>

<svg xmlns="http://www.w3.org/2000/svg" viewBox="0 0 24 24">
    <g>
        <path fill="none" d="M0 0h24v24H0z"/>
        <path d="M3 10h18v10.004c0 .55-.445.996-.993.996H3.993A.994.994 0 0 1 3 20.004V10zm6 2v2h6v-2H9zM2 4c0-.552.455-1 .992-1h18.016c.548 0 .992.444.992 1v4H2V4z"/>
    </g>
</svg>
